assets/img/list.svg

<svg fill="none" height="20" viewBox="0 0 20 20" width="20" xmlns="http://www.w3.org/2000/svg"><path d="m6 4.75c0-.19891.07902-.38968.21967-.53033s.33142-.21967.53033-.21967h10.5c.1989 0 .3897.07902.5303.21967.1407.14065.2197.33142.2197.53033s-.079.38968-.2197.53033c-.1406.14065-.3314.21967-.5303.21967h-10.5c-.19891 0-.38968-.07902-.53033-.21967s-.21967-.33142-.21967-.53033zm1 10c0-.1989.07902-.3897.21967-.5303.14065-.1407.33142-.2197.53033-.2197h9.5c.1989 0 .3897.079.5303.2197.1407.1406.2197.3314.2197.5303s-.079.3897-.2197.5303c-.1406.1407-.3314.2197-.5303.2197h-9.5c-.19891 0-.38968-.079-.53033-.2197-.14065-.1406-.21967-.3314-.21967-.5303zm-4.25-5.75c-.19891 0-.38968.07902-.53033.21967s-.21967.33142-.21967.53033.07902.3897.21967.5303c.14065.1407.33142.2197.53033.2197h14.5c.1989 0 .3897-.079.5303-.2197.1407-.1406.2197-.33139.2197-.5303s-.079-.38968-.2197-.53033c-.1406-.14065-.3314-.21967-.5303-.21967z" fill="#fff"/></svg>

<svg width="20" height="20" viewBox="0 0 20 20" fill="none" xmlns="http://www.w3.org/2000/svg">
<path d="M6 4.75C6 4.55109 6.07902 4.36032 6.21967 4.21967C6.36032 4.07902 6.55109 4 6.75 4H17.25C17.4489 4 17.6397 4.07902 17.7803 4.21967C17.921 4.36032 18 4.55109 18 4.75C18 4.94891 17.921 5.13968 17.7803 5.28033C17.6397 5.42098 17.4489 5.5 17.25 5.5H6.75C6.55109 5.5 6.36032 5.42098 6.21967 5.28033C6.07902 5.13968 6 4.94891 6 4.75ZM7 14.75C7 14.5511 7.07902 14.3603 7.21967 14.2197C7.36032 14.079 7.55109 14 7.75 14H17.25C17.4489 14 17.6397 14.079 17.7803 14.2197C17.921 14.3603 18 14.5511 18 14.75C18 14.9489 17.921 15.1397 17.7803 15.2803C17.6397 15.421 17.4489 15.5 17.25 15.5H7.75C7.55109 15.5 7.36032 15.421 7.21967 15.2803C7.07902 15.1397 7 14.9489 7 14.75ZM2.75 9C2.55109 9 2.36032 9.07902 2.21967 9.21967C2.07902 9.36032 2 9.55109 2 9.75C2 9.94891 2.07902 10.1397 2.21967 10.2803C2.36032 10.421 2.55109 10.5 2.75 10.5H17.25C17.4489 10.5 17.6397 10.421 17.7803 10.2803C17.921 10.1397 18 9.94891 18 9.75C18 9.55109 17.921 9.36032 17.7803 9.21967C17.6397 9.07902 17.4489 9 17.25 9H2.75Z" fill="white"/>
</svg>
